usr/share/icons/big-icons/symbolic/actions/distribute-horizontal-margin.svg

<svg xmlns="http://www.w3.org/2000/svg" viewBox="0 0 16 16">
<defs id="defs3051">
<style id="current-color-scheme" type="text/css">
.ColorScheme-Text{color:#fcfcfc}
</style>
</defs>
<path d="M1 1v14h14V1zm1 1h12v12H2zm1 2v8h4V4zm6 0v8h4V4zM4 5h2v6H4zm6 0h2v6h-2z" class="ColorScheme-Text" style="fill:currentColor;fill-opacity:1;stroke:none"/>
</svg>

<svg xmlns="http://www.w3.org/2000/svg" viewBox="0 0 16 16">
  <defs id="defs3051">
    <style type="text/css" id="current-color-scheme">
      .ColorScheme-Text {
        color:#eff0f1;
      }
      </style>
  </defs>
 <path style="fill:currentColor;fill-opacity:1;stroke:none" 
     d="M 1 1 L 1 15 L 15 15 L 15 1 L 1 1 z M 2 2 L 14 2 L 14 14 L 2 14 L 2 2 z M 3 4 L 3 12 L 7 12 L 7 4 L 3 4 z M 9 4 L 9 12 L 13 12 L 13 4 L 9 4 z M 4 5 L 6 5 L 6 11 L 4 11 L 4 5 z M 10 5 L 12 5 L 12 11 L 10 11 L 10 5 z "
     class="ColorScheme-Text"
     />
</svg>
